rospo-icon-theme-classic-common/24x24/devices/gnome-dev-media-cf.svg

<svg height="24" width="24" xmlns="http://www.w3.org/2000/svg"><path d="m7 2.5-3 3v16c0 .554.446 1 1 1h14c .554 0 1-.446 1-1v-18c0-.554-.446-1-1-1z" opacity=".2"/><path d="m7 2-3 3v16c0 .554.446 1 1 1h14c .554 0 1-.446 1-1v-18c0-.554-.446-1-1-1z" fill="#4f4f4f"/><rect height="8" opacity=".4" rx="1" transform="scale(1 -1)" width="12" x="6" y="-19"/><g fill="#f8c44e"><path d="m10 4h1v3h-1z"/><path d="m12 4h1v3h-1z"/><path d="m14 4h1v3h-1z"/><path d="m16 4h1v3h-1z"/><path d="m18 4h1v3h-1z"/><path d="m6 5h1v2h-1z"/><path d="m8 4h1v3h-1z"/></g><path d="m7 2-3 3v .5l3-3h12c .554 0 1 .446 1 1v-.5c0-.554-.446-1-1-1z" fill="#fff" opacity=".1"/></svg>

<svg xmlns="http://www.w3.org/2000/svg" width="24" height="24" version="1">
 <path style="opacity:0.2" d="M 7,2.5 4,5.5 V 21.5 C 4,22.054 4.446,22.5 5,22.5 H 19 C 19.554,22.5 20,22.054 20,21.5 V 3.5 C 20,2.946 19.554,2.5 19,2.5 Z"/>
 <path style="fill:#4f4f4f" d="M 7,2 4,5 V 21 C 4,21.554 4.446,22 5,22 H 19 C 19.554,22 20,21.554 20,21 V 3 C 20,2.446 19.554,2 19,2 Z"/>
 <rect style="opacity:0.4" width="12" height="8" x="6" y="-19" rx="1" ry="1" transform="scale(1,-1)"/>
 <g style="fill:#f8c44e">
  <rect width="1" height="3" x="10" y="4"/>
  <rect width="1" height="3" x="12" y="4"/>
  <rect width="1" height="3" x="14" y="4"/>
  <rect width="1" height="3" x="16" y="4"/>
  <rect width="1" height="3" x="18" y="4"/>
  <rect width="1" height="2" x="6" y="5"/>
  <rect width="1" height="3" x="8" y="4"/>
 </g>
 <path style="opacity:0.1;fill:#ffffff" d="M 7,2 4,5 V 5.5 L 7,2.5 H 19 C 19.554,2.5 20,2.946 20,3.5 V 3 C 20,2.446 19.554,2 19,2 Z"/>
</svg>
